X: 2
T: Anachreon in Heaven  v.2
T: Star Spangled Banner
P: piffero secondo a0264
O: old guard
F: http://ancients.sudburymuster.org/mus/acn/pdf/fyf02F.pdf
F: http://ancients.sudburymuster.org/mus/acn/pdf/fyf03F.pdf
Z: 2019 John Chambers <jc:trillian.mit.edu>
M: 3/4
L: 1/8
K: D
A>F |\
D2 D2 F2 | B3 zB2 | B2 F2 E2 | A3 zA>A |\
D3 EFG | A3 zG2 | F2 A2 A2 | F2 D2 :|
dd |\
d2 e2 f2 | f4 ed | c2 d2 e2 | e3 ze2 |\
d3 c B2 | A3 zGA | D2 D2 E2 | E3 z F2 ||
F2 G2 A2 | G2 G2 G2 | G2 BAGF | F2 HE2 FE |\
D3 EFG | HA4 GG | A3 B G2 | HF6 |]


